svg/u1f365.svg

<svg viewBox="0 0 128 128" xmlns="http://www.w3.org/2000/svg">
  <path d="M64.2,3.67c4.09,0,13.2,8.02,13.2,8.02S93.43,10.12,96.42,12c2.99,1.89,5.82,16.03,5.82,16.03 s11.48,2.04,13.52,5.03c2.04,2.99,0.79,16.98,0.79,16.98s7.86,8.8,7.55,13.2s-8.02,13.36-8.02,13.36s2.67,14.31,0.94,17.45 c-1.73,3.14-14.46,8.8-14.46,8.8s-4.72,12.1-6.92,13.52c-2.2,1.41-18.39-0.31-18.39-0.31s-9.75,8.49-12.42,8.65 c-2.67,0.16-13.2-8.8-13.2-8.8s-16.03,2.2-18.39,0.79c-2.66-1.59-6.6-12.89-6.6-12.89s-12.69-3.26-14.78-6.6 c-1.57-2.52-1.1-17.29-1.1-17.29S3.72,69.22,3.52,64.82c-0.16-3.46,8.33-13.36,8.33-13.36s-1.26-15.56,0.47-18.55 s11.79-3.93,11.79-3.93s4.56-14.62,7.7-16.51s18.55,0.63,18.55,0.63S60.42,3.67,64.2,3.67z" fill="#AFAFAF"/>
  <path d="M64.04,7.29c-1.88-0.17-11.95,9.59-11.95,9.59s-15.41-1.57-17.13-0.79 c-1.73,0.79-6.6,15.41-6.6,15.41s-11.48,1.57-13.05,3.77s0.79,17.13,0.79,17.13S7.6,62.78,7.6,64.51c0,1.73,7.86,13.52,7.86,13.52 s-1.41,11.79-0.47,13.36c0.94,1.57,13.68,5.97,13.68,5.97s4.09,12.89,6.29,13.68c2.2,0.79,17.61-1.41,17.61-1.41 s9.9,7.55,11.63,7.55c1.73,0,11.16-8.02,11.16-8.02s16.66,1.89,18.24,1.26s8.02-13.99,8.02-13.99s11.79-3.93,12.42-5.82 s-2.36-16.98-2.36-16.98s8.96-9.75,8.8-12.26c-0.16-2.52-7.86-10.85-7.86-10.85s1.26-13.99,0.16-15.88 c-1.1-1.89-13.52-3.77-13.52-3.77s-3.14-14.31-4.72-15.25c-1.57-0.94-16.82,0.79-16.82,0.79S65.77,7.45,64.04,7.29z" fill="#E2E2E2"/>
  <path d="M64.2,12.63c0,0,10.53,8.17,11.95,8.49c1.41,0.31,15.41-1.73,15.41-1.73s2.99,13.83,3.93,14.78 s13.05,3.62,13.05,3.62s-0.31,13.2,0.16,13.99c0.47,0.79,6.92,9.75,6.92,9.75s-8.02,9.9-8.33,11.16s2.99,15.88,2.99,15.88 s-11.32,4.4-12.26,5.19c-0.94,0.79-6.29,12.1-6.29,12.1s-15.56-1.73-17.45-1.26c-1.89,0.47-9.75,6.92-9.75,6.92 s-9.75-6.29-11.16-6.76c-1.41-0.47-16.35,1.73-16.35,1.73s-4.87-12.1-5.66-12.89c-0.79-0.79-11.63-5.03-11.63-5.03 s0.79-12.26,0.47-13.2c-0.31-0.94-7.23-11.16-7.23-11.16s7.23-9.59,7.7-11.63s-0.94-14.62-0.94-14.62s11.63-2.67,12.42-3.46 c0.79-0.79,5.19-14.78,5.19-14.78s14.31,2.2,15.88,1.89S64.2,12.63,64.2,12.63z" fill="#FEFFFF"/>
  <path d="M67.54,29.39c0.24,1.93-5.32,2.25-11.38,5.3c-5.56,2.8-25.58,16.83-14.3,39.29 c4.98,9.92,14.98,13.91,25.58,12.64c13.13-1.57,23.93-12.25,20.52-26.07c-2.13-8.63-8.25-11.86-14.36-12.56 c-8.4-0.96-15.48,4.97-15.6,11.39c-0.19,10.99,12.94,9.73,12.74,4.08s2.92-6.13,3.79-6.22c0.88-0.1,4.77,0.78,4.96,5.84 s-3.3,15.11-16.24,14.2c-13.71-0.96-15.18-14.29-14.5-19.73c0.34-2.73,3.51-17.32,20.73-18.49c17.29-1.17,26.77,12.4,27.36,23.68 c1.17,22.56-16.66,34.48-35.53,33.41S30.48,78.66,30.87,59.79c0.41-19.84,17.15-27.88,22.03-30.02 C58.19,27.46,67.25,27.01,67.54,29.39z" fill="#EF7EAD"/>
</svg>

<svg viewBox="0 0 128 128" xmlns="http://www.w3.org/2000/svg">
  <defs/>
  <path d="M64.2,3.67 C68.29,3.67 77.4,11.69 77.4,11.69 C77.4,11.69 93.43,10.12 96.42,12 C99.41,13.89 102.24,28.03 102.24,28.03 C102.24,28.03 113.72,30.07 115.76,33.06 C117.8,36.05 116.55,50.04 116.55,50.04 C116.55,50.04 124.41,58.84 124.1,63.24 C123.79,67.64 116.08,76.6 116.08,76.6 C116.08,76.6 118.75,90.91 117.02,94.05 C115.29,97.19 102.56,102.85 102.56,102.85 C102.56,102.85 97.84,114.95 95.64,116.37 C93.44,117.78 77.25,116.06 77.25,116.06 C77.25,116.06 67.5,124.55 64.83,124.71 C62.16,124.87 51.63,115.91 51.63,115.91 C51.63,115.91 35.6,118.11 33.24,116.7 C30.58,115.11 26.64,103.81 26.64,103.81 C26.64,103.81 13.95,100.55 11.86,97.21 C10.29,94.69 10.76,79.92 10.76,79.92 C10.76,79.92 3.72,69.22 3.52,64.82 C3.36,61.36 11.85,51.46 11.85,51.46 C11.85,51.46 10.59,35.9 12.32,32.91 C14.05,29.92 24.11,28.98 24.11,28.98 C24.11,28.98 28.67,14.36 31.81,12.47 C34.95,10.58 50.36,13.1 50.36,13.1 C50.36,13.1 60.42,3.67 64.2,3.67 Z" fill="#AFAFAF"/>
  <path d="M64.04,7.29 C62.16,7.12 52.09,16.88 52.09,16.88 C52.09,16.88 36.68,15.31 34.96,16.09 C33.23,16.88 28.36,31.5 28.36,31.5 C28.36,31.5 16.88,33.07 15.31,35.27 C13.74,37.47 16.1,52.4 16.1,52.4 C16.1,52.4 7.6,62.78 7.6,64.51 C7.6,66.24 15.46,78.03 15.46,78.03 C15.46,78.03 14.05,89.82 14.99,91.39 C15.93,92.96 28.67,97.36 28.67,97.36 C28.67,97.36 32.76,110.25 34.96,111.04 C37.16,111.83 52.57,109.63 52.57,109.63 C52.57,109.63 62.47,117.18 64.2,117.18 C65.93,117.18 75.36,109.16 75.36,109.16 C75.36,109.16 92.02,111.05 93.6,110.42 C95.18,109.79 101.62,96.43 101.62,96.43 C101.62,96.43 113.41,92.5 114.04,90.61 C114.67,88.72 111.68,73.63 111.68,73.63 C111.68,73.63 120.64,63.88 120.48,61.37 C120.32,58.85 112.62,50.52 112.62,50.52 C112.62,50.52 113.88,36.53 112.78,34.64 C111.68,32.75 99.26,30.87 99.26,30.87 C99.26,30.87 96.12,16.56 94.54,15.62 C92.97,14.68 77.72,16.41 77.72,16.41 C77.72,16.41 65.77,7.45 64.04,7.29 Z" fill="#E2E2E2"/>
  <path d="M64.2,12.63 C64.2,12.63 74.73,20.8 76.15,21.12 C77.56,21.43 91.56,19.39 91.56,19.39 C91.56,19.39 94.55,33.22 95.49,34.17 C96.43,35.12 108.54,37.79 108.54,37.79 C108.54,37.79 108.23,50.99 108.7,51.78 C109.17,52.57 115.62,61.53 115.62,61.53 C115.62,61.53 107.6,71.43 107.29,72.69 C106.98,73.95 110.28,88.57 110.28,88.57 C110.28,88.57 98.96,92.97 98.02,93.76 C97.08,94.55 91.73,105.86 91.73,105.86 C91.73,105.86 76.17,104.13 74.28,104.6 C72.39,105.07 64.53,111.52 64.53,111.52 C64.53,111.52 54.78,105.23 53.37,104.76 C51.96,104.29 37.02,106.49 37.02,106.49 C37.02,106.49 32.15,94.39 31.36,93.6 C30.57,92.81 19.73,88.57 19.73,88.57 C19.73,88.57 20.52,76.31 20.2,75.37 C19.89,74.43 12.97,64.21 12.97,64.21 C12.97,64.21 20.2,54.62 20.67,52.58 C21.14,50.54 19.73,37.96 19.73,37.96 C19.73,37.96 31.36,35.29 32.15,34.5 C32.94,33.71 37.34,19.72 37.34,19.72 C37.34,19.72 51.65,21.92 53.22,21.61 C54.79,21.3 64.2,12.63 64.2,12.63 Z" fill="#FEFFFF"/>
  <path d="M67.54,29.39 C67.78,31.32 62.22,31.64 56.16,34.69 C50.6,37.49 30.58,51.52 41.86,73.98 C46.84,83.9 56.84,87.89 67.44,86.62 C80.57,85.05 91.37,74.37 87.96,60.55 C85.83,51.92 79.71,48.69 73.6,47.99 C65.2,47.03 58.12,52.96 58,59.38 C57.81,70.37 70.94,69.11 70.74,63.46 C70.54,57.81 73.66,57.33 74.53,57.24 C75.41,57.14 79.3,58.02 79.49,63.08 C79.68,68.14 76.19,78.19 63.25,77.28 C49.54,76.32 48.07,62.99 48.75,57.55 C49.09,54.82 52.26,40.23 69.48,39.06 C86.77,37.89 96.25,51.46 96.84,62.74 C98.01,85.3 80.18,97.22 61.31,96.15 C42.44,95.08 30.48,78.66 30.87,59.79 C31.28,39.95 48.02,31.91 52.9,29.77 C58.19,27.46 67.25,27.01 67.54,29.39 Z" fill="#EF7EAD"/>
</svg>
